X:1
T:Sovengarde
T:Sovengarde
T:Skyrim
T:Jeremy Soule
C:Jeremy Soule
%%score 1 2
L:1/8
Q:3/8=78
M:6/8
K:Ab
V:1 bass nm="Trombone" snm="Tbn."
V:2 bass nm="Trombone" snm="Tbn."
V:1
"^\n" z6 | z6 | z6 | z6 | z6 | z6 | z6 | z3 z z!mf! C,/C,/ | F,3 z z G,/A,/ | B,3 z B,B, | %10
 A,3 G,2 z | F,3 z C,C, | F,3 F,2 G, | A,3 A,2 B, | C6 | z3 z CC | [B,D]2 [A,C]2 [G,B,]2 | %17
 [A,C]2 [G,B,]2 [F,A,]2 | (([G,B,]3 [G,B,]))[F,A,][=E,G,] | [F,A,]3 z z F,/F,/ | A,3 A,2 A, | %21
 G,3 F,2 E, | F,6 | z6 | z6 | z6 | z6 | z6 | z6 | z6 | z3 z!mf! =A,A, ||[K:F] (D,3 D,)E,F, | %32
 (G,3 G,)G,G, | F,2 E,2 C,2 | D,3 z A,A, | D,3 D,2 E, | F,3 F,2 E, | D,6 | z3 z A,A, | %39
 G,2 F,2 E,2 | F,2 E,2 D,2 | E,3 D,2 ^C, | D,3 z D,D, | F,3 F,2 F, | E,3 D,2 C, | D,6 | z3 A,2 F, | %47
 D,3 E,2 F, | (G,3 G,)G,G, | F,2 E,2 C,2 | D,3 z A,A, | D,3 D,2 E, | F,3 F,2 G, | F,6 | %54
 z3 z!f! A,A, | G,2 F,2 E,2 | F,2 E,2 D,2 | E,3 D,2 ^C, | D,3 z D,D, | F,2 F,2 F,2 | E,3 D,2 C, | %61
 D,6 | z6 ||[K:Ab]!mp! C,3 B,,3 | C,3 A,,3 | C,3 B,,3 | A,,3 z3 | z6 | z6 | z6 | z3!f! !-(!D,3 | %71
 !-)!!>!B, z z z3 | z6 | z6 | z3 z!f! A,A, | B,2 A,2 G,2 | A,2 G,2 F,2 | G,2 F,2 =E,2 | %78
 F,3 z F,F, | A,3 A,2 A, | G,3 F,2 E, | F,3 z3 | z6 | z3 z z !-(!D, | !-)!B, z z z3 | z6 | z6 | %87
 z3 z z !-(!D, | !-)!B, z z z3 ||[K:A] z6 | z6 | z6 | z3 z CC | F,3 F,2 G, |!<(! F,3 F,2 G,!<)! | %95
 F,6 | z3 CB,C | B,2 A,2 G,2 | A,2 G,2 F,2 | G,3 F,2 ^E, | F,3 z F,F, | A,3 A,2 A, | G,3 F,2 E, | %103
 !>!F,3 z z2 | z3 z !-(!D,2 | !-)!B, z z4 | z3 z!f! F,F, ||[K:Bb] G,3 A,2 B, | C3 C2 A, | %109
 B,3 A,2 F, | G,3 z DD | G,3 G,2 A, | G,3 G,2 A, | B,6 | z3 DCD | C2 B,2 A,2 | B,2 A,2 G,2 | %117
 A,3 G,2 ^F, | G,3 z G,G, | (B,6 | B,) z z C2 B, |!<(! A,6!<)! | ((D3 D2) D) |!ff! G6- | G6- | %125
 G6- | G3 !-(!D,3 | !-)!B, z z z3 | z6 |] %129
V:2
!mp! C,3 B,,3 | C,3 z3 | C,3 E,2 =D, | C,3 z3 | C,3 B,,3 | C,3 z3 | C,3 E,2 =D, | C,3 z3 | %8
 C,3 B,,3 | C,3 z3 | C,3 E,2 =D, | C,3 z3 | C,3 B,,3 | C,3 z z!mf! B,, | C,3 E,2 E, | C,3 z3 | %16
 D,2 C,2 E,2 | C,2 C,2 D,2 | D,3 D,3 | C,2 D, C,2 z | E,6 | E,6 | D,3 (B,,C,)D, | C,3 z3 | %24
!p! C,3 B,,3 | C,3 D,3 | C,3 B,, !>!D,2 | C,3 C, z z | D,3 D, z z | C,3 C, z z | D,3 D, z z || %31
[K:F]!mf! A,,3 C,3 | A,,3 C,3 | A,,3 C,3 | A,,3 B,,3 | A,,3 C,3 | A,,3 C,3 | A,,3 C,3 | z3 D,2 D, | %39
 G,,3 C,2 C, | A,,2 A,,2 A,,2 | B,,3 B,,2 B,, | A,,3 z D,D, | F,3 F,2 F, | E,3 D,2 C, | A,,6 | %46
 z3 A,2 F, | D,3 E,2 F, | (G,3 G,)G,G, | F,2 E,2 C,2 | D,3 z A,A, | D,3 D,2 E, | D,3 D,2 E, | %53
 F,2 G, A,3 |!f! !-(!F,3 !-)!B, z z |!mf! G,,2 G,,2 G,,2 | D,2 D,2 D,2 | B,,3 B,,2 B,, | A,,3 z3 | %59
 B,,6 | (A,,3 A,,2) A,,/A,,/ | A,,3 C,2 B,, | A,,3 z3 ||[K:Ab]!mp! F,,3 E,,3 | F,,3 A,,3 | %65
 F,,3 E,,3 | F,,3 !>!A,,3 | D, z z z3 | z3 B,,2 B,, | z3 C,2 C, | z3 C,2 C, | z3 C,2 C, | %72
 z3 B,,2 B,, | z3!<(! C,2 C,!<)! |!<(! C,2 C, z!f! C,C,!<)! | D,2 C,2 E,2 | C,2 C,2 E,2 | %77
 D,2 D,2 D,2 | C,3 z F,F, | F,3 F,2 F, | C,3 C,2 C, | F,3 z z B,, | !>!C,3 z z B,, | (!>!C,6 | %84
 C,) z z z z B,, | !>!C,3 z z B,, | !>!C,3 z z B,, | (!>!C,6 | C,) z z z3 ||[K:A]!mf! C,2 C, z3 | %90
 C,2 C, z z B,, | C,2 C, z z B,, | C,2 C, z z B,, | C,2 C, z z B,, | C,2 C, z z B,, | %95
!f! C,2 C, C,2 C, | C,2 C, z3 | D,2 C,2 E,2 | C,2 C,2 E,2 | (D,3 D,2) D, | C,3 z3 | z6 | %102
 z G,G, F,3 | z!mf! C,C, C,C,C, | C,D,E, C,2 z | z C,C, C,D,B,, | C,2 z!f! (F,E,)D, || %107
[K:Bb]!>(! D,6!>)! |!mf! E,6 | =E,6 | z z!f! !-(!D, !-)!!>!C z z |!mf! D,6 | E,6 | %113
 D,2!<(! D, D,2 D,!<)! | D,2 D, z3 |!f! E,2 D,2 F,2 | D,2 D,2 E,2 | ((D,3 D,2) E,) | %118
 D,2 E, D, z z | z B,A, G,F,E, | D,6 | z D,D, D,D,D, | D,D,D, D,2 z |!ff! B,6- | B,6- | B,6- | %126
 B,3 !-(!D,3 | !-)!B, z z z3 | z6 |] %129

